images_elementary_svg/cmd/sc_strikeout.svg

<?xml version="1.0" encoding="UTF-8" standalone="no"?>
<svg
   xmlns:dc="http://purl.org/dc/elements/1.1/"
   xmlns:cc="http://creativecommons.org/ns#"
   xmlns:rdf="http://www.w3.org/1999/02/22-rdf-syntax-ns#"
   xmlns:svg="http://www.w3.org/2000/svg"
   xmlns="http://www.w3.org/2000/svg"
   xmlns:xlink="http://www.w3.org/1999/xlink"
   xmlns:sodipodi="http://sodipodi.sourceforge.net/DTD/sodipodi-0.dtd"
   xmlns:inkscape="http://www.inkscape.org/namespaces/inkscape"
   viewBox="0 0 16 16"
   version="1.1"
   id="svg8"
   sodipodi:docname="sc_strikeout.svg"
   inkscape:version="0.92.3 (2405546, 2018-03-11)"
   inkscape:export-filename="/home/rizmut/Documents/Rizmut/Github/libreoffice-style-elementary/images_elementary/cmd/sc_strikeout.png"
   inkscape:export-xdpi="96"
   inkscape:export-ydpi="96"><metadata
   id="metadata14">
  <rdf:RDF>
    <cc:Work
       rdf:about="">
      <dc:format>image/svg+xml</dc:format>
      <dc:type
         rdf:resource="http://purl.org/dc/dcmitype/StillImage" />
    </cc:Work>
  </rdf:RDF>
</metadata>
<defs
   id="defs12">
  <linearGradient
     id="linearGradient2867-449-88-871-390-598-476-591-434-148-57-177-641-289-620-227-114-444-680-744-4-1-5">
    <stop
       id="stop5430-5-0-9"
       style="stop-color:#737373;stop-opacity:1"
       offset="0" />
    <stop
       id="stop5432-2-0-0"
       style="stop-color:#636363;stop-opacity:1"
       offset="0.26238" />
    <stop
       id="stop5434-9-6-8"
       style="stop-color:#4b4b4b;stop-opacity:1"
       offset="0.704952" />
    <stop
       id="stop5436-2-7-0"
       style="stop-color:#3f3f3f;stop-opacity:1"
       offset="1" />
  </linearGradient>
  <radialGradient
     inkscape:collect="always"
     xlink:href="#linearGradient2867-449-88-871-390-598-476-591-434-148-57-177-641-289-620-227-114-444-680-744-4-1-5"
     id="radialGradient855"
     cx="8"
     cy="3.8778167"
     fx="8"
     fy="3.8778167"
     r="3.558594"
     gradientTransform="matrix(-3.6531281,-1.0720423e-8,5.6201974e-8,-5.9012073,37.225025,23.883799)"
     gradientUnits="userSpaceOnUse" />
  <radialGradient
     inkscape:collect="always"
     xlink:href="#linearGradient2867-449-88-871-390-598-476-591-434-148-57-177-641-289-620-227-114-444-680-744-4-1-5"
     id="radialGradient823"
     gradientUnits="userSpaceOnUse"
     gradientTransform="matrix(-3.6531281,-1.0720423e-8,5.6201974e-8,-5.9012073,37.225025,23.883799)"
     cx="7.7262621"
     cy="3.9467483"
     fx="7.7262621"
     fy="3.9467483"
     r="3.558594" />
</defs>
<sodipodi:namedview
   pagecolor="#ffffff"
   bordercolor="#666666"
   borderopacity="1"
   objecttolerance="10"
   gridtolerance="10"
   guidetolerance="10"
   inkscape:pageopacity="0"
   inkscape:pageshadow="2"
   inkscape:window-width="1316"
   inkscape:window-height="732"
   id="namedview10"
   showgrid="true"
   inkscape:zoom="29.5"
   inkscape:cx="6.7946155"
   inkscape:cy="6.7325138"
   inkscape:window-x="50"
   inkscape:window-y="0"
   inkscape:window-maximized="1"
   inkscape:current-layer="svg8">
  <inkscape:grid
     type="xygrid"
     id="grid839" />
</sodipodi:namedview>

/&gt;<path
   style="fill:url(#radialGradient823);fill-opacity:1;stroke:none;stroke-width:0.5;stroke-miterlimit:4;stroke-dasharray:none;stroke-opacity:0.13970588"
   d="M 8.2988281 1.4394531 C 6.9840707 1.4394531 5.9423673 1.765047 5.1914062 2.4140625 A 0.51055059 0.51055059 0 0 0 5.1894531 2.4160156 C 4.4523445 3.0586005 4.0761719 3.9633659 4.0761719 5.0800781 C 4.0761706 5.4244254 4.1285145 5.7248044 4.1992188 6 L 7.0527344 6 A 0.51055059 0.51055059 0 0 0 6.9511719 5.6933594 C 6.8827223 5.6020364 6.8576925 5.5729966 6.8789062 5.6074219 L 6.8769531 5.6074219 C 6.775169 5.4367487 6.7207031 5.2253467 6.7207031 4.9941406 C 6.7207031 4.6341115 6.8650871 4.3012498 7.1074219 4.0839844 C 7.3631546 3.8547075 7.7302039 3.7382812 8.2148438 3.7382812 C 8.6254728 3.7382812 9.0428517 3.7935686 9.4667969 3.9023438 A 0.51055059 0.51055059 0 0 0 9.4707031 3.9023438 A 0.51055059 0.51055059 0 0 0 9.4746094 3.9042969 C 9.7645985 3.9783194 10.21566 4.1518725 10.671875 4.3300781 A 0.51055059 0.51055059 0 0 0 11.330078 4.046875 L 11.820312 2.8359375 A 0.51055059 0.51055059 0 0 0 11.539062 2.171875 C 11.083562 1.9876741 10.613492 1.7981315 10.148438 1.6738281 C 9.5621405 1.5158738 8.9443491 1.4394531 8.2988281 1.4394531 z M 7.84375 9 A 0.51055059 0.51055059 0 0 0 8.1054688 9.4414062 C 8.3254252 9.5620158 8.5157796 9.6732744 8.6210938 9.7460938 A 0.51055059 0.51055059 0 0 0 8.6308594 9.7519531 C 8.8884028 9.9273067 9.0814417 10.109021 9.2148438 10.302734 A 0.51055059 0.51055059 0 0 0 9.2167969 10.306641 C 9.3434845 10.486792 9.4160158 10.716167 9.4160156 10.951172 C 9.4160156 11.367758 9.2419961 11.731611 8.9628906 11.935547 A 0.51055059 0.51055059 0 0 0 8.9570312 11.941406 C 8.6584212 12.160733 8.2420587 12.267578 7.6757812 12.267578 C 7.2025393 12.267578 6.678388 12.190563 6.1015625 12.035156 C 5.7377059 11.936097 5.1823274 11.701565 4.6367188 11.474609 A 0.51055059 0.51055059 0 0 0 3.9316406 11.945312 L 3.9316406 13.382812 A 0.51055059 0.51055059 0 0 0 4.2304688 13.847656 C 5.1737399 14.273866 6.2360572 14.550781 7.4707031 14.550781 C 8.9097722 14.550781 10.041889 14.218839 10.851562 13.550781 C 11.657255 12.890657 12.068359 11.959646 12.068359 10.820312 C 12.068359 10.122582 11.904196 9.5166023 11.597656 9 L 7.84375 9 z "
   id="path821" />
<path
   d="m8.2988281.98828125c-1.381439 0-2.528223.34239485-3.375 1.07421875a.46715598.48012064 0 0 0 -.0019531.0019531c-.840374.7318336-1.2714844 1.7843632-1.2714844 3.015625 0 .3208597.0309779.6281492.0917969.9199219h.9804687c-.0809261-.274867-.1367194-.571547-.1367187-.9199219 0-1.0144839.3047281-1.7259664.9394531-2.2792969.640433-.5534921 1.5409905-.8515624 2.7734375-.8515624.605327 0 1.1774469.0714899 1.7167969.2167968.421794.1125434.877023.2945141 1.332031.4785156l-.490234 1.2109376c-.456608-.1783592-.9142959-.3590713-1.2617189-.4472657h-.0019531c-.462133-.1185729-.9226862-.1796875-1.3789062-.1796875-.568281 0-1.0736697.1396623-1.4472657.4746094-.358333.3212637-.5566416.794938-.5566406 1.2910156 0 .3115358.0735326.6151222.2285156.875a.46715598.48012064 0 0 0  .0039063.0058594c.0276351.0448467.0678341.0826037.0996094.125h1.5664062c-.12684-.0710925-.442997-.2261903-.4980469-.2636719-.191234-.1398942-.312872-.2716161-.375-.3710937-.05853-.0987211-.0917969-.2086864-.0917969-.3710938 0-.2681644.0670713-.4148666.2382813-.5683594.155941-.1398092.4088372-.2382813.8320313-.2382812.376891 0 .7627209.049277 1.15625.1503906a.46715598.48012064 0 0 0 0 .0019532c.398369.1010267.9283812.2862818 1.5742182.5585937a.46715598.48012064 0 0 0  .607422-.2597656l.845704-2.0917969a.46715598.48012064 0 0 0 -.246094-.625c-.655236-.2920113-1.286386-.5201789-1.898438-.6835938h-.001953c-.6205619-.1670114-1.2747029-.24999994-1.9531249-.24999995zm-2.0097656 8.00585935c.187425.102559.3556345.2048619.5703125.3085938.796266.3892469 1.3310893.6809256 1.5351562.8222656a.46715598.48012064 0 0 0  .0039063.003906c.229752.155744.3836824.307063.4746094.439453a.46715598.48012064 0 0 0  .0039062.00586c.07844.110845.1152344.217311.1152344.376953 0 .331505-.0780173.477618-.2695313.617187a.46715598.48012064 0 0 0 -.0039062.001953c-.191035.1418-.5278987.246094-1.0429688.246094-.4293789 0-.9209521-.06869-1.4707031-.216797-.537616-.14634-1.2220916-.407872-2.0410156-.783203a.46715598.48012064 0 0 0 -.6582031.4375v2.501953a.46715598.48012064 0 0 0  .2617187.431641c1.08576.545547 2.326362.8125 3.703125.8125 1.499673 0 2.7328939-.347362 3.6386719-1.09375l.001953-.001953c.907208-.744414 1.382813-1.82307 1.382813-3.083985 0-.669276-.135095-1.2850244-.400391-1.8261714h-1.105469c.0069.00889.018791.0185128.025391.0273438a.46715598.48012064 0 0 0  .001953.0019531c.360711.4780352.542969 1.0539925.542969 1.7968745 0 1.03079-.328749 1.76036-1.03125 2.335938-.6939162.572547-1.6956459.884766-3.0566409.884766-1.159371 0-2.1401068-.256429-3.0292969-.658204v-1.4375c.541175.225111 1.0979187.465738 1.5253907.582032a.46715598.48012064 0 0 0  .0019531 0c .610724.164536 1.1787352.25 1.7070312.25.632512 0 1.1709627-.1197 1.5878907-.427735v-.001953c.427224-.312163.6621094-.837014.6621093-1.396484 0-.336778-.1007096-.666883-.2910156-.9375-.178639-.2591739-.421504-.4835693-.71875-.685547l-.0039062-.0019531c-.137478-.0950642-.3353719-.2085421-.5605469-.3320313z"
   fill="#565656"
   id="path2"
   style="fill-opacity:0.49792531;fill:#000000;stroke:none;stroke-opacity:1" />
<path
   d="m1.4929285 7.4999999h13.0141435z"
   fill="none"
   stroke="#565656"
   stroke-linecap="round"
   stroke-linejoin="round"
   id="path4" />
<path
   d="m8.2988281 1.9492188c-1.232447 0-2.1330045.2980704-2.7734375.8515624-.634725.5533305-.9394531 1.264813-.9394531 2.2792969-.0000013.3483749.0557924.6450549.1367187.9199219h1.8203126c-.0317774-.0423963-.0719736-.0801532-.0996094-.125a.46715598.48012064 0 0 1 -.0039063-.0058594c-.154983-.2598778-.2285156-.5634642-.2285156-.875 0-.4960776.1983076-.9697519.5566406-1.2910156.373596-.3349471.8789847-.4746094 1.4472657-.4746094.45622 0 .9167762.061115 1.3789062.1796875h.0019531c.347423.088194.8051109.2689066 1.2617189.4472657l.490234-1.2109376c-.455008-.1840016-.910237-.3659722-1.332031-.4785156-.53935-.1453065-1.1114699-.2167968-1.7167969-.2167968zm.0527344 7.0449218c.225043.1233986.4230659.2369703.5605469.3320313l.0039062.0019531c.297246.2019777.540201.4262761.71875.685547.190306.270617.2910157.600722.2910156.9375 0 .55947-.2348853 1.084321-.6621093 1.396484v.001953c-.416928.308035-.9553787.427735-1.5878907.427735-.528296 0-1.0963072-.08546-1.7070312-.25a.46715598.48012064 0 0 0 -.0019531 0c-.427478-.116338-.9842157-.356922-1.5253907-.582032v1.4375c.8891901.401774 1.8699259.658204 3.0292969.658204 1.360995 0 2.3627247-.312219 3.0566409-.884766.702501-.575578 1.03125-1.305149 1.03125-2.335938 0-.742881-.182258-1.3188393-.542969-1.7968745a.46715598.48012064 0 0 0 -.001953-.0019531c-.0065-.00883-.018521-.0184538-.025391-.0273438z"
   id="path6"
   fill="#8c8c8c"
   style="fill-opacity:1;fill:url(#radialGradient855);stroke:none;stroke-opacity:0.13970588;stroke-width:0.5;stroke-miterlimit:4;stroke-dasharray:none" />
</svg>

<svg xmlns="http://www.w3.org/2000/svg" xmlns:xlink="http://www.w3.org/1999/xlink" viewBox="0 0 16 16"><defs><linearGradient id="a"><stop offset="0" stop-color="#737373"/><stop offset=".262" stop-color="#636363"/><stop offset=".705" stop-color="#4b4b4b"/><stop offset="1" stop-color="#3f3f3f"/></linearGradient><radialGradient xlink:href="#a" id="c" cx="8" cy="3.878" fx="8" fy="3.878" r="3.559" gradientTransform="matrix(-3.65313 0 0 -5.9012 37.225 23.884)" gradientUnits="userSpaceOnUse"/><radialGradient xlink:href="#a" id="b" gradientUnits="userSpaceOnUse" gradientTransform="matrix(-3.65313 0 0 -5.9012 37.225 23.884)" cx="7.726" cy="3.947" fx="7.726" fy="3.947" r="3.559"/></defs>/&gt;<path d="M8.3 1.44c-1.316 0-2.358.325-3.11.974a.51.51 0 0 0 0 .002C4.45 3.06 4.075 3.963 4.075 5.08c0 .344.053.645.123.92h2.853a.51.51 0 0 0-.102-.307c-.067-.09-.092-.12-.07-.086h-.003c-.102-.17-.156-.382-.156-.613 0-.36.145-.693.387-.91.256-.23.623-.346 1.108-.346.41 0 .828.056 1.252.164a.51.51 0 0 0 .004 0 .51.51 0 0 0 .005.002c.29.074.74.248 1.197.426a.51.51 0 0 0 .658-.283l.49-1.21a.51.51 0 0 0-.28-.665c-.456-.184-.927-.374-1.392-.498-.586-.158-1.204-.235-1.85-.235zM7.843 9a.51.51 0 0 0 .26.44c.22.122.412.233.517.306a.51.51 0 0 0 .01.006c.258.175.45.357.585.55a.51.51 0 0 0 .002.005c.126.18.2.41.2.644 0 .418-.175.782-.454.986a.51.51 0 0 0-.006.005c-.3.22-.715.328-1.28.328-.474 0-1-.077-1.575-.233-.364-.1-.92-.333-1.465-.56a.51.51 0 0 0-.705.47v1.438a.51.51 0 0 0 .298.465c.944.426 2.006.703 3.24.703 1.44 0 2.572-.33 3.382-1 .805-.66 1.216-1.59 1.216-2.73 0-.697-.164-1.303-.47-1.82H7.844z" fill="url(#b)"/><path d="M8.3.988c-1.383 0-2.53.343-3.376 1.075a.467.48 0 0 0-.002 0C4.082 2.797 3.65 3.85 3.65 5.08c0 .32.03.628.092.92h.98c-.08-.275-.136-.572-.136-.92 0-1.014.305-1.726.94-2.28.64-.553 1.54-.85 2.773-.85.604 0 1.176.07 1.716.216.42.113.877.295 1.332.48l-.49 1.21c-.457-.18-.915-.36-1.262-.448h-.002c-.462-.118-.923-.18-1.38-.18-.567 0-1.073.14-1.446.475-.36.32-.557.795-.557 1.29 0 .313.074.616.23.876a.467.48 0 0 0 .003.005c.028.045.068.083.1.125H8.11c-.127-.07-.444-.226-.5-.264-.19-.14-.312-.27-.374-.37-.058-.1-.09-.21-.09-.372 0-.268.066-.415.237-.568.156-.14.41-.24.832-.24.377 0 .763.05 1.156.152a.467.48 0 0 0 0 .002c.4.1.93.286 1.575.558a.467.48 0 0 0 .608-.26l.845-2.09a.467.48 0 0 0-.246-.626c-.655-.292-1.286-.52-1.898-.684h-.002C9.632 1.07 8.977.988 8.3.988zM6.29 8.994c.186.103.355.205.57.31.796.388 1.33.68 1.535.82a.467.48 0 0 0 .003.005c.23.155.384.306.475.438a.467.48 0 0 0 .004.006c.078.11.115.218.115.377 0 .333-.078.48-.27.618a.467.48 0 0 0-.003.002c-.192.142-.53.246-1.044.246-.43 0-.92-.068-1.47-.216-.54-.147-1.223-.408-2.042-.784a.467.48 0 0 0-.658.438v2.502a.467.48 0 0 0 .262.432c1.085.545 2.326.812 3.703.812 1.5 0 2.734-.347 3.64-1.094v-.002c.91-.744 1.384-1.823 1.384-3.084 0-.67-.135-1.285-.4-1.826h-1.106c.007.01.02.02.026.027a.467.48 0 0 0 .002.003c.36.478.543 1.054.543 1.797 0 1.03-.33 1.76-1.033 2.336-.694.573-1.695.885-3.056.885-1.16 0-2.14-.255-3.03-.657v-1.438c.543.225 1.1.466 1.527.582a.467.48 0 0 0 .002 0c.61.165 1.177.25 1.706.25.632 0 1.17-.12 1.588-.427v-.002c.427-.313.662-.837.662-1.397 0-.336-.1-.666-.29-.936-.18-.26-.423-.484-.72-.686l-.004-.002c-.137-.095-.335-.208-.56-.332z" fill-opacity=".498"/><path d="M1.493 7.5h13.014z" fill="none" stroke="#565656" stroke-linecap="round" stroke-linejoin="round"/><path d="M8.3 1.95c-1.234 0-2.134.297-2.775.85-.634.554-.94 1.266-.94 2.28 0 .348.057.645.138.92h1.82c-.032-.042-.072-.08-.1-.125a.467.48 0 0 1-.004-.006c-.156-.26-.23-.564-.23-.876 0-.496.2-.97.558-1.29.373-.336.88-.475 1.447-.475.456 0 .917.06 1.38.178.348.088.806.27 1.262.447l.49-1.21c-.454-.184-.91-.366-1.33-.48-.54-.144-1.113-.216-1.718-.216zm.052 7.044c.225.124.423.237.56.332l.004.002c.297.202.54.426.72.686.19.27.29.6.29.937 0 .56-.235 1.085-.662 1.398v.002c-.417.308-.956.427-1.588.427-.53 0-1.097-.085-1.707-.25a.467.48 0 0 0-.003 0c-.428-.116-.984-.357-1.526-.582v1.438c.89.402 1.87.658 3.03.658 1.362 0 2.363-.31 3.057-.884.703-.575 1.032-1.305 1.032-2.336 0-.743-.184-1.32-.544-1.797a.467.48 0 0 0-.002-.002c-.007-.007-.02-.017-.026-.026z" fill="url(#c)"/></svg>
